!!!OTL: 766d. Treuherz auf der Schildwacht.
!!!ARE: Europa, Mitteleuropa, Deutschland, Baden; Elsass; Schleswig; Hessen
!!!SCT: E0766D
!!!TXL: @@DE
!!!YEM: Copyright 1995, estate of Helmut Schaffrath.
**kern	**text
*ICvox	*
!! Mixed meters:  4/4; 3/4
*M4/4	*
*met(c)	*
*k[b-e-a-]	*
*E-:	*
!LO:TX:a:t=Belebt, aber nicht schnell.	!
!LO:TX:a:t=Aus Baden u. dem Elſaß, Heſſen-Naſſau, Wetterau u. Schleswig.	!
{8e-	.
8e-	Schatʒ,
8g	mein
=1	=1
4b-	Schatʒ,
4b-	reiſ'
8.cc	nicht
16cc	ſo
8b-	weit
8a-	von
=2	=2
*M3/4	*
4g	hier!
8r}	.
{8e-	Jm
8e-	Ro-
8e-	-ſen-
=3	=3
8a-L	-gar-
8ccJ	.
8ee-	-ten
8ee-	will
8dd	ich
8cc	dein
=4	=4
8b-L	war-
8ee-J	.
8g}	-ten,
{8b-	im
8cc	grü-
8b-	-nen
=5	=5
4.dd	Klee,
8cc	im
8b-	wei-
8a-	-ßen
=6	=6
4g	Schnee.
8r}	.
{8e-	Jm
8e-	Ro-
8e-	-ſen-
=7	=7
8a-L	-gar-
8ccJ	.
8ee-	-ten
8ee-	will
8dd	ich
8cc	dein
=8	=8
8b-L	war-
8ee-J	.
8g}	-ten,
{8b-	im
8cc	grü-
8b-	-nen
=9	=9
4.dd	Klee,
8cc	im
8b-	wei-
8a-	-ßen
=10	=10
4g	Schnee.
8r}	.
==	==
!!!AGN: Abschieds - Lied, Liebe
!!!ONB: ESAC (Essen Associative Code) Database: ERK2
!!!AMT: irregular
!!!AIN: vox
!!!EED: Helmut Schaffrath
!!!EEV: 1.0
!!!GTL: Abschieds- und Wanderlieder
!!!URL-scan: https://rosdok.uni-rostock.de/mcrviewer/recordIdentifier/rosdok_ppn745177662/iview2/phys_0574.iview2?x=134.15085127905627&y=1748.6939247869886&scale=0.7029437510502773&rotation=0&layout=singlePageLayout
!!!ENC: Anna Maria Matuszewska
!!!EEV: 2024/12/16
*-	*-
